dist/svgs/core-ui-icons/brand/cib-creative-commons-remix.svg

<svg xmlns="http://www.w3.org/2000/svg" viewBox="0 0 32 32"><path d="M15.975.5C24.837.5 31.5 7.381 31.5 16c0 9.194-7.406 15.5-15.525 15.5C7.6 31.5.5 24.656.5 16 .5 7.694 7.044.5 15.975.5zm.05 2.794C8.638 3.294 3.294 9.413 3.294 16c0 6.863 5.7 12.675 12.731 12.675 6.45 0 12.675-5.069 12.675-12.675.006-7.113-5.637-12.706-12.675-12.706zm10.106 12.981l.306.138v4.375c-.45.225-3.962 1.719-4.206 1.8-.406-.112-7.106-2.925-8.581-3.512l-4.012 1.663-3.956-1.719v-3.988l3.706-1.55c-.044-.044-.025.313-.025-4.4l4.206-1.856 9.494 3.931v3.85zm-4.4 5.094v-2.737h-.025v-.113l-7.113-2.906v2.825l7.113 2.931v-.025zm.469-3.6l2.494-1.025-2.3-.969-2.438 1.025zm3.269 2.381v-2.688L22.7 18.625v2.712z"/></svg>

<svg xmlns="http://www.w3.org/2000/svg" width="32" height="32" viewBox="0 0 32 32">
  <path d="M15.975 0.5c8.862 0 15.525 6.881 15.525 15.5 0 9.194-7.406 15.5-15.525 15.5-8.375 0-15.475-6.844-15.475-15.5 0-8.306 6.544-15.5 15.475-15.5zM16.025 3.294c-7.387 0-12.731 6.119-12.731 12.706 0 6.863 5.7 12.675 12.731 12.675 6.45 0 12.675-5.069 12.675-12.675 0.006-7.113-5.637-12.706-12.675-12.706zM26.131 16.275l0.306 0.138v4.375c-0.45 0.225-3.962 1.719-4.206 1.8-0.406-0.112-7.106-2.925-8.581-3.512l-4.012 1.663-3.956-1.719v-3.988l3.706-1.55c-0.044-0.044-0.025 0.313-0.025-4.4l4.206-1.856 9.494 3.931v3.85zM21.731 21.369v-2.737h-0.025v-0.113l-7.113-2.906v2.825l7.113 2.931v-0.025zM22.2 17.769l2.494-1.025-2.3-0.969-2.438 1.025zM25.469 20.15v-2.688l-2.769 1.163v2.712z"/>
</svg>
